X:1
T:Belle of the Ball -- Hornpipe
R:hornpipe
B:Cole's 1000 Fiddle Tunes
M:2/4
L:1/16
K:G
vBABG cBcA|Bgfe "4"edcB|cdef gbge|cBAG FAFD|
BABG cBcA|Bgfe "4"edcB|Aafd gdAF|G2G2G2z2:|
|:ud"4"edB gfed|efge agfe|dgba gfed|"4"edcB A2(Bc)|
d"4"edB gfed|"4"e^d"0"ef gfga|bgec BAGF|G2G2G2z2:|
